svgs/regular/book.svg

<svg xmlns="http://www.w3.org/2000/svg" viewBox="0 0 448 512"><!--! Font Awesome Pro 6.6.0 by @fontawesome - https://fontawesome.com License - https://fontawesome.com/license (Commercial License) Copyright 2024 Fonticons, Inc. --><path d="M0 88C0 39.4 39.4 0 88 0L392 0c30.9 0 56 25.1 56 56l0 288c0 22.3-13.1 41.6-32 50.6l0 69.4 8 0c13.3 0 24 10.7 24 24s-10.7 24-24 24L80 512c-44.2 0-80-35.8-80-80c0-2.7 .1-5.4 .4-8L0 424 0 88zM80 400c-17.7 0-32 14.3-32 32s14.3 32 32 32l288 0 0-64L80 400zM48 358.7c9.8-4.3 20.6-6.7 32-6.7l312 0c4.4 0 8-3.6 8-8l0-288c0-4.4-3.6-8-8-8L88 48C65.9 48 48 65.9 48 88l0 270.7zM152 112l176 0c13.3 0 24 10.7 24 24s-10.7 24-24 24l-176 0c-13.3 0-24-10.7-24-24s10.7-24 24-24zm0 80l176 0c13.3 0 24 10.7 24 24s-10.7 24-24 24l-176 0c-13.3 0-24-10.7-24-24s10.7-24 24-24z"/></svg>

<svg xmlns="http://www.w3.org/2000/svg" viewBox="0 0 448 512"><!--! Font Awesome Pro 6.4.2 by @fontawesome - https://fontawesome.com License - https://fontawesome.com/license (Commercial License) Copyright 2023 Fonticons, Inc. --><path d="M0 88C0 39.4 39.4 0 88 0H392c30.9 0 56 25.1 56 56V344c0 22.3-13.1 41.6-32 50.6V464h8c13.3 0 24 10.7 24 24s-10.7 24-24 24H80c-44.2 0-80-35.8-80-80c0-2.7 .1-5.4 .4-8H0V88zM80 400c-17.7 0-32 14.3-32 32s14.3 32 32 32H368V400H80zM48 358.7c9.8-4.3 20.6-6.7 32-6.7H392c4.4 0 8-3.6 8-8V56c0-4.4-3.6-8-8-8H88C65.9 48 48 65.9 48 88V358.7zM152 112H328c13.3 0 24 10.7 24 24s-10.7 24-24 24H152c-13.3 0-24-10.7-24-24s10.7-24 24-24zm0 80H328c13.3 0 24 10.7 24 24s-10.7 24-24 24H152c-13.3 0-24-10.7-24-24s10.7-24 24-24z"/></svg>
